packages/kaspersky-hexa-ui-icons/src/iconsSVGs/48/Groupe.svg

<svg xmlns="http://www.w3.org/2000/svg" width="48" height="48" fill="currentColor" viewBox="0 0 48 48"><path fill-rule="evenodd" d="M11 0H3C1.3432 0 0 1.3432 0 3v8c0 1.6569 1.3432 3 3 3h8c1.6569 0 3-1.3431 3-3V8h12c1.1046 0 2 .8954 2 2v13H14v-3c0-1.6569-1.3431-3-3-3H3c-1.6568 0-3 1.3431-3 3v8c0 1.6569 1.3432 3 3 3h8c1.6569 0 3-1.3431 3-3v-3h14v11.35c0 .7845-.0007 1.3178-.0316 1.7311-.0303.4031-.0852.611-.1521.7562a2 2 0 0 1-.979.979c-.1452.0669-.3531.1218-.7562.1521-.4133.0309-.9466.0316-1.7311.0316H14v-3c0-1.6569-1.3431-3-3-3H3c-1.6568 0-3 1.3431-3 3v8c0 1.6569 1.3432 3 3 3h8c1.6569 0 3-1.3431 3-3v-3h10.3878c.7373 0 1.3458 0 1.8429-.0372.5157-.0387.9914-.1216 1.4439-.3302a4 4 0 0 0 1.958-1.958c.2086-.4525.2915-.9282.3302-1.4439C30 37.7336 30 37.1251 30 36.3878V25h14.6004l-3.8787 3.8787c-.3905.3905-.3905 1.0237 0 1.4142s1.0237.3905 1.4142 0l5.4352-5.4352a1 1 0 0 0 .0997-.1161A.997.997 0 0 0 48 24a.996.996 0 0 0-.2854-.6995 1 1 0 0 0-.129-.1582l-5.4352-5.4352c-.3905-.3905-1.0237-.3905-1.4142 0s-.3905 1.0237 0 1.4142L44.6149 23H30V10c0-2.2091-1.7909-4-4-4H14V3c0-1.6568-1.3431-3-3-3m1 37c0-.5523-.4477-1-1-1H3c-.5523 0-1 .4477-1 1v8c0 .5523.4477 1 1 1h8c.5523 0 1-.4477 1-1zm0-26c0 .5523-.4477 1-1 1H3c-.5523 0-1-.4477-1-1V3c0-.5523.4477-1 1-1h8c.5523 0 1 .4477 1 1zM2 20c0-.5523.4477-1 1-1h8c.5523 0 1 .4477 1 1v8c0 .5523-.4477 1-1 1H3c-.5523 0-1-.4477-1-1z" clip-rule="evenodd"/></svg>

<svg
  width="48"
  height="48"
  viewBox="0 0 48 48"
  fill="currentColor"
  xmlns="http://www.w3.org/2000/svg"
>
  <path
    fill-rule="evenodd"
    clip-rule="evenodd"
    d="M11 0H3C1.34315 0 0 1.34315 0 3V11C0 12.6569 1.34315 14 3 14H11C12.6569 14 14 12.6569 14 11V8H26C27.1046 8 28 8.89543 28 10V23H14V20C14 18.3431 12.6569 17 11 17H3C1.34315 17 0 18.3431 0 20V28C0 29.6569 1.34315 31 3 31H11C12.6569 31 14 29.6569 14 28V25H28V36.35C28 37.1345 27.9993 37.6678 27.9684 38.0811C27.9381 38.4842 27.8832 38.6921 27.8163 38.8373C27.6169 39.2698 27.2698 39.6169 26.8373 39.8163C26.6921 39.8832 26.4842 39.9381 26.0811 39.9684C25.6678 39.9993 25.1345 40 24.35 40H14V37C14 35.3431 12.6569 34 11 34H3C1.34315 34 0 35.3431 0 37V45C0 46.6569 1.34315 48 3 48H11C12.6569 48 14 46.6569 14 45V42H24.3878C25.1251 42 25.7336 42 26.2307 41.9628C26.7464 41.9241 27.2221 41.8412 27.6746 41.6326C28.5396 41.2338 29.2338 40.5396 29.6326 39.6746C29.8412 39.2221 29.9241 38.7464 29.9628 38.2307C30 37.7336 30 37.1251 30 36.3878V25H44.6004L40.7217 28.8787C40.3312 29.2692 40.3312 29.9024 40.7217 30.2929C41.1122 30.6834 41.7454 30.6834 42.1359 30.2929L47.5711 24.8577C47.6078 24.821 47.641 24.7822 47.6708 24.7416C47.873 24.5587 48 24.2942 48 24C48 23.7277 47.8912 23.4808 47.7146 23.3005C47.6778 23.2445 47.6348 23.1915 47.5856 23.1423L42.1504 17.7071C41.7599 17.3166 41.1267 17.3166 40.7362 17.7071C40.3457 18.0976 40.3457 18.7308 40.7362 19.1213L44.6149 23H30V10C30 7.79086 28.2091 6 26 6H14V3C14 1.34315 12.6569 0 11 0ZM12 37C12 36.4477 11.5523 36 11 36H3C2.44772 36 2 36.4477 2 37V45C2 45.5523 2.44772 46 3 46H11C11.5523 46 12 45.5523 12 45V37ZM12 11C12 11.5523 11.5523 12 11 12H3C2.44772 12 2 11.5523 2 11V3C2 2.44772 2.44772 2 3 2H11C11.5523 2 12 2.44772 12 3V11ZM2 20C2 19.4477 2.44772 19 3 19H11C11.5523 19 12 19.4477 12 20V28C12 28.5523 11.5523 29 11 29H3C2.44772 29 2 28.5523 2 28V20Z"
  />
</svg>
